public/gin.svg

<svg fill="none" height="64" viewBox="0 0 64 64" width="64" xmlns="http://www.w3.org/2000/svg"><path d="m29.1234 10.1104c-.0658-.59233.3979-1.1104.9939-1.1104h4.7654c.596 0 1.0597.51807.9939 1.1104l-.7778 7c-.0562.5065-.4843.8896-.9938.8896h-3.21c-.5095 0-.9376-.3831-.9938-.8896z" fill="#62534d"/><path d="m21 27.6524c0-1.2884.6206-2.4979 1.6673-3.2493l5.3239-3.822c.4809-.3453.7842-.8858.8282-1.4762l.2367-3.1792c.0388-.522.4737-.9257.9972-.9257h4.8934c.5235 0 .9584.4037.9972.9257l.2367 3.1792c.044.5904.3473 1.1309.8282 1.4762l5.3239 3.822c1.0467.7514 1.6673 1.9609 1.6673 3.2494v25.3475c0 1.1046-.8954 2-2 2h-19c-1.1046 0-2-.8954-2-2z" fill="#e3e3e3"/><path d="m21 31h19v18h-19z" fill="#4d8fb1"/></svg>

<svg width="64" height="64" viewBox="0 0 64 64" fill="none" xmlns="http://www.w3.org/2000/svg">
<rect width="64" height="64" fill="white"/>
<path d="M29.1234 10.1104C29.0576 9.51807 29.5213 9 30.1173 9H34.8827C35.4787 9 35.9424 9.51807 35.8766 10.1104L35.0988 17.1104C35.0426 17.6169 34.6145 18 34.105 18H30.895C30.3855 18 29.9574 17.6169 29.9012 17.1104L29.1234 10.1104Z" fill="#62534D"/>
<path d="M21 27.6524C21 26.364 21.6206 25.1545 22.6673 24.4031L27.9912 20.5811C28.4721 20.2358 28.7754 19.6953 28.8194 19.1049L29.0561 15.9257C29.0949 15.4037 29.5298 15 30.0533 15H34.9467C35.4702 15 35.9051 15.4037 35.9439 15.9257L36.1806 19.1049C36.2246 19.6953 36.5279 20.2358 37.0088 20.5811L42.3327 24.4031C43.3794 25.1545 44 26.364 44 27.6525V53C44 54.1046 43.1046 55 42 55H23C21.8954 55 21 54.1046 21 53V27.6524Z" fill="#E3E3E3"/>
<path d="M21 31H40V49H21V31Z" fill="#4D8FB1"/>
</svg>
